!!!id: EG048
!!!page: 298
!!!COM: Anonymous
!!!LYR: Anonymous
!!!PTL@@FR: Chansons Populaires du Canada
!!!OTL@@FR: Il n'y a qu'un seul Dieu
!!!PUB: G. E. Desbarats
!!!YEM:
!!!PDT: 1865
!!!SMA:
!!!OMD:
!!!AGN-Laforte:
!!!AGN-type:
!!!AGN-rime:
**kern	**text	**text	**text	**text	**text	**text	**text	**text	**text	**text	**text	**text
*clefG2	*	*	*	*	*	*	*	*	*	*	*	*
*M4/4	*	*	*	*	*	*	*	*	*	*	*	*
*k[]	*	*	*	*	*	*	*	*	*	*	*	*
*C:	*	*	*	*	*	*	*	*	*	*	*	*
*	*v:1	*v:2	*v:3	*v:4	*v:5	*v:6	*v:7	*v:8	*v:9	*v:10	*v:11	*v:12
*	*pline:1	*pline:2	*pline:4	*pline:6	*pline:8	*pline:10	*pline:12	*pline:14	*pline:16	*pline:18	*pline:20	*pline:22
8g	Il	Dis-	Dis-	Dis-	Dis-	Dis-	Dis-	Dis-	Dis-	Dis-	Dis-	Dis-
8g	n'ya	-moi	-moi	-moi	-moi	-moi	-moi	-moi	-moi	-moi	-moi	-moi
=1	=1	=1	=1	=1	=1	=1	=1	=1	=1	=1	=1	=1
4cc	qu'un	pour-	pour-	pour-	pour-	pour-	pour-	pour-	pour-	pour-	pour-	pour-
4dd	seul	-quoi	-quoi	-quoi	-quoi	-quoi	-quoi	-quoi	-quoi	-quoi	-quoi	-quoi
4ee	Dieu,	deux,	trois,	quatr[e],	cinq,	six,	sept,	huit,	neuf,	dix,	onz[e],	douz[e],
8dd	Il	Dis-	Dis-	Dis-	Dis-	Dis-	Dis-	Dis-	Dis-	Dis-	Dis-	Dis-
8cc	n'ya	-moi	-moi	-moi	-moi	-moi	-moi	-moi	-moi	-moi	-moi	-moi
=2	=2	=2	=2	=2	=2	=2	=2	=2	=2	=2	=2	=2
4dd	qu'un	pour-	pour-	pour-	pour-	pour-	pour-	pour-	pour-	pour-	pour-	pour-
4ee	seul	-quoi	-quoi	-quoi	-quoi	-quoi	-quoi	-quoi	-quoi	-quoi	-quoi	-quoi
4cc	Dieu.	deux.	trois.	quatr[e].	cinq.	six.	sept.	huit.	neuf.	dix.	onz[e].	douz[e].
=||	=||	=||	=||	=||	=||	=||	=||	=||	=||	=||	=||	=||
*	*	*pline:3	*pline:5	*pline:7	*pline:9	*pline:11	*pline:13	*pline:15	*pline:17	*pline:19	*pline:21	*pline:23
8cc	.	—Il	—Il	—Il	—Il	.	—Il	—Il	—Il	—Il	-Il	—Il
8cc	.	y	ya	ya	ya	.	y	ya	y	ya	y	y
=3	=3	=3	=3	=3	=3	=3	=3	=3	=3	=3	=3	=3
8b	.	a	trois	quatr[e]	cinq	.	a	huit	a	dix	a	a
8cc	.	deux	grand	é-	livr[e]s	.	sept	bé-	neuf	com-	onz[e]	les
8dd	.	Tes-	pa-	-van-	de	.	sac-	-a-	choeurs	-man-	cents	douz[e]
8b	.	-ta-	-tri-	-ge-	Mo-	.	-re-	-ti-	des	-de-	mill[e]	a-
4cc	.	-ments.	-arch's.	-list[e]s.	-ïse.	.	-ments.	-tud[e]s.	ang[e]s.	-ments.	vierg[e]s,	-pôtr[e]s.
==	==	==	==	==	==	==	==	==	==	==	==	==
4r	.	.	.	.	.	.	.	.	.	.	.	.
=4	=4	=4	=4	=4	=4	=4	=4	=4	=4	=4	=4	=4
2cc	.	.	.	.	.	Six	.	.	.	.	.	.
2g	.	.	.	.	.	urn[e]s	.	.	.	.	.	.
=5	=5	=5	=5	=5	=5	=5	=5	=5	=5	=5	=5	=5
2a	.	.	.	.	.	de	.	.	.	.	.	.
2g	.	.	.	.	.	vin	.	.	.	.	.	.
=6	=6	=6	=6	=6	=6	=6	=6	=6	=6	=6	=6	=6
2a	.	.	.	.	.	rem-	.	.	.	.	.	.
4g	.	.	.	.	.	-pli[e]s	.	.	.	.	.	.
8cc	.	.	.	.	.	A	.	.	.	.	.	.
8cc	.	.	.	.	.	Ca-	.	.	.	.	.	.
=7	=7	=7	=7	=7	=7	=7	=7	=7	=7	=7	=7	=7
8b	.	.	.	.	.	-na,	.	.	.	.	.	.
8cc	.	.	.	.	.	en	.	.	.	.	.	.
8dd	.	.	.	.	.	Ga-	.	.	.	.	.	.
8b	.	.	.	.	.	-li-	.	.	.	.	.	.
4cc	.	.	.	.	.	-lée.	.	.	.	.	.	.
==	==	==	==	==	==	==	==	==	==	==	==	==
*-	*-	*-	*-	*-	*-	*-	*-	*-	*-	*-	*-	*-
!!!EED-1: Isaac Howie
!!!EEV-1: 2026/01/18
